X: 160818
T: Padraig O'Keeffe's B
S: 100 Enduring Irish Session Tunes ("Mally")
Z: B.Black
L: 1/8
M: 12/8
R: slide
K: D
G|FEF A2 F E3 E2 F|G3 GFE F3 F2 A|\
d2 e f2 d cBc e2 c|B3 BcB A3 A2 :|
f|e3 ede f3 fec|d3 dcB c3 c2 A|\
d2 e f2 d cBc e2 c|B3 BcB A3 A2 :|
